img/plus.svg

<svg width="15" height="15" viewBox="0 0 15 15" fill="none" xmlns="http://www.w3.org/2000/svg">
<g clip-path="url(#clip0)">
<path d="M14.5677 6.9643C14.5677 6.43193 14.1357 6.00001 13.6034 6.00001H9.4248V1.82144C9.4248 1.28907 8.99289 0.857147 8.46052 0.857147H6.53195C5.99958 0.857147 5.56766 1.28907 5.56766 1.82144V6.00001H1.38909C0.856724 6.00001 0.424805 6.43193 0.424805 6.9643V8.89287C0.424805 9.42523 0.856724 9.85715 1.38909 9.85715H5.56766V14.0357C5.56766 14.5681 5.99958 15 6.53195 15H8.46052C8.99289 15 9.4248 14.5681 9.4248 14.0357V9.85715H13.6034C14.1357 9.85715 14.5677 9.42523 14.5677 8.89287V6.9643Z" fill="white"/>
</g>
<defs>
<clipPath id="clip0">
<rect width="15" height="15" fill="white"/>
</clipPath>
</defs>
</svg>

<svg width="15" height="15" fill="none" xmlns="http://www.w3.org/2000/svg"><g clip-path="url(#clip0)"><path d="M14.568 6.964A.965.965 0 0013.603 6H9.425V1.821A.965.965 0 008.46.857H6.53a.965.965 0 00-.963.964V6H1.389a.965.965 0 00-.964.964v1.929c0 .532.432.964.964.964h4.179v4.179c0 .532.432.964.964.964H8.46a.965.965 0 00.964-.964V9.857h4.178a.965.965 0 00.965-.964V6.964z" fill="#fff"/></g><defs><clipPath id="clip0"><path fill="#fff" d="M0 0h15v15H0z"/></clipPath></defs></svg>
